;FLAVOR:Marlin
;TIME:13173
;Filament used: 10.1568m
;Layer height: 0.2
;MINX:36.331
;MINY:44.49
;MINZ:0.2
;MAXX:168.33
;MAXY:189.789
;MAXZ:10.2
;Generated with Cura_SteamEngine 4.8.0
M140 S60
M105
M190 S60
M104 S180
M105
M109 S180
M82 ;absolute extrusion mode
; Ender 3 Custom Start G-code
G92 E0 ; Reset Extruder
G28 ; Home all axes
G1 Z2.0 F3000 ; Move Z Axis up little to prevent scratching of Heat Bed
G1 X0.1 Y20 Z0.3 F5000.0 ; Move to start position
G1 X0.1 Y200.0 Z0.3 F1500.0 E15 ; Draw the first line
G1 X0.4 Y200.0 Z0.3 F5000.0 ; Move to side a little
G1 X0.4 Y20 Z0.3 F1500.0 E30 ; Draw the second line
G92 E0 ; Reset Extruder
G1 Z2.0 F3000 ; Move Z Axis up little to prevent scratching of Heat Bed
G1 X5 Y20 Z0.3 F5000.0 ; Move over to prevent blob squish
G92 E0
G92 E0
G1 F3600 E-6
;LAYER_COUNT:51
;LAYER:0
M107
G0 F6000 X75.834 Y49.586 Z0.2
;TYPE:SKIRT
G1 F3600 E0
G1 F1200 X76.381 Y48.824 E0.0312
G1 X77.257 Y47.836 E0.07512
G1 X77.371 Y47.722 E0.08048
G1 X78.062 Y47.088 E0.11167
G1 X78.804 Y46.514 E0.14287
G1 X79.593 Y46.007 E0.17406
G1 X80.421 Y45.568 E0.20523
G1 X81.285 Y45.201 E0.23646
G1 X82.176 Y44.909 E0.26764
G1 X83.089 Y44.695 E0.29883
G1 X84.017 Y44.558 E0.33003
G1 X84.778 Y44.506 E0.3554
G1 X85.163 Y44.496 E0.36821
G1 X85.706 Y44.49 E0.38627
G1 X91.096 Y44.491 E0.56554
G1 X91.804 Y44.502 E0.58909
G1 X92.74 Y44.557 E0.62028
G1 X93.668 Y44.691 E0.65147
G1 X94.582 Y44.904 E0.68268
G1 X95.438 Y45.18 E0.71259
G1 X96.772 Y45.673 E0.7599
G1 X96.821 Y45.692 E0.76164
G1 X99.195 Y46.531 E0.84539
G1 X101.599 Y47.305 E0.92939
G1 X104.006 Y48.007 E1.01278
G1 X106.449 Y48.643 E1.09674
G1 X108.929 Y49.215 E1.18139
G1 X111.375 Y49.707 E1.26438
G1 X113.833 Y50.129 E1.34733
G1 X116.354 Y50.489 E1.43203
G1 X117.177 Y50.583 E1.45958
G1 X118.096 Y50.701 E1.4904
G1 X120.704 Y50.997 E1.57769
G1 X123.191 Y51.208 E1.66071
G1 X125.691 Y51.351 E1.744
G1 X128.239 Y51.423 E1.82878
G1 X130.726 Y51.423 E1.91149
G1 X133.258 Y51.351 E1.99574
G1 X135.798 Y51.208 E2.08036
G1 X138.29 Y50.996 E2.16354
G1 X139.965 Y50.815 E2.21958
G1 X140.92 Y50.702 E2.25156
G1 X141.889 Y50.631 E2.28388
G1 X142.334 Y50.62 E2.29868
G1 X142.641 Y50.617 E2.30889
G1 X154.386 Y50.618 E2.69953
G1 X155.084 Y50.627 E2.72275
G1 X156.02 Y50.679 E2.75393
G1 X156.949 Y50.811 E2.78514
G1 X157.863 Y51.021 E2.81633
G1 X158.756 Y51.308 E2.84753
G1 X159.621 Y51.671 E2.87873
G1 X160.452 Y52.105 E2.90991
G1 X161.243 Y52.609 E2.94111
G1 X161.988 Y53.179 E2.97231
G1 X162.682 Y53.81 E3.0035
G1 X163.319 Y54.497 E3.03466
G1 X163.896 Y55.237 E3.06587
G1 X164.408 Y56.023 E3.09707
G1 X164.851 Y56.85 E3.12828
G1 X165.222 Y57.711 E3.15946
G1 X165.518 Y58.601 E3.19066
G1 X165.737 Y59.513 E3.22185
G1 X165.878 Y60.44 E3.25304
G1 X165.938 Y61.313 E3.28214
G1 X165.947 Y61.629 E3.29266
G1 X165.951 Y61.942 E3.30307
G1 X165.951 Y83.865 E4.03223
G1 X165.988 Y86.473 E4.11898
G1 X166.095 Y88.994 E4.20291
G1 X166.272 Y91.489 E4.2861
G1 X166.52 Y93.989 E4.36966
G1 X166.839 Y96.482 E4.45325
G1 X167.23 Y98.975 E4.53718
G1 X167.698 Y101.491 E4.6223
G1 X167.973 Y102.802 E4.66685
G1 X168.08 Y103.394 E4.68686
G1 X168.194 Y104.138 E4.7119
G1 X168.315 Y105.434 E4.75519
G1 X168.328 Y105.91 E4.77103
G1 X168.33 Y106.126 E4.77821
G1 X168.329 Y125.288 E5.41554
G1 X168.318 Y126.03 E5.44022
G1 X168.264 Y126.966 E5.47141
G1 X168.187 Y127.565 E5.49149
G1 X168.063 Y128.353 E5.51803
G1 X167.843 Y129.632 E5.56119
G1 X167.487 Y132.116 E5.64465
G1 X167.202 Y134.615 E5.72831
G1 X166.987 Y137.124 E5.81206
G1 X166.842 Y139.655 E5.89638
G1 X166.77 Y142.141 E5.9791
G1 X166.768 Y144.666 E6.06308
G1 X166.838 Y147.187 E6.14697
G1 X166.979 Y149.708 E6.23094
G1 X167.19 Y152.214 E6.31459
G1 X167.471 Y154.695 E6.39764
G1 X167.83 Y157.232 E6.48286
G1 X168.169 Y159.258 E6.55118
G1 X168.284 Y160.188 E6.58235
G1 X168.314 Y160.697 E6.59931
G1 X168.32 Y160.872 E6.60513
G1 X168.329 Y161.475 E6.62519
G1 X168.329 Y176.094 E7.11142
G1 X168.318 Y176.95 E7.13989
G1 X168.268 Y177.846 E7.16974
G1 X168.253 Y178.002 E7.17495
G1 X168.184 Y178.571 E7.19401
G1 X168.133 Y178.913 E7.20551
G1 X167.955 Y179.834 E7.23671
G1 X167.699 Y180.737 E7.26793
G1 X167.499 Y181.295 E7.28765
G1 X167.372 Y181.62 E7.29925
G1 X167.237 Y181.949 E7.31108
G1 X167.177 Y182.089 E7.31615
G1 X166.771 Y182.935 E7.34736
G1 X166.294 Y183.742 E7.37854
G1 X165.909 Y184.298 E7.40103
G1 X165.636 Y184.667 E7.4163
G1 X165.416 Y184.955 E7.42835
G1 X164.807 Y185.669 E7.45956
G1 X164.14 Y186.328 E7.49075
G1 X163.599 Y186.788 E7.51437
G1 X163.281 Y187.041 E7.52788
G1 X162.884 Y187.342 E7.54445
G1 X162.797 Y187.405 E7.54803
G1 X162.014 Y187.923 E7.57925
G1 X161.191 Y188.371 E7.61042
G1 X160.746 Y188.577 E7.62673
G1 X160.352 Y188.749 E7.64103
G1 X159.976 Y188.906 E7.65458
G1 X159.092 Y189.218 E7.68576
G1 X158.184 Y189.455 E7.71697
G1 X157.513 Y189.577 E7.73965
G1 X157.083 Y189.642 E7.75412
G1 X156.644 Y189.7 E7.76885
G1 X156.517 Y189.714 E7.7731
G1 X155.663 Y189.774 E7.80157
G1 X155.189 Y189.787 E7.81734
G1 X154.96 Y189.789 E7.82496
G1 X49.879 Y189.788 E11.31997
G1 X49.182 Y189.778 E11.34315
G1 X48.326 Y189.732 E11.37166
G1 X48.164 Y189.717 E11.37707
G1 X47.577 Y189.647 E11.39674
G1 X47.244 Y189.598 E11.40793
G1 X46.322 Y189.422 E11.43915
G1 X45.42 Y189.168 E11.47032
G1 X44.837 Y188.959 E11.49092
G1 X44.423 Y188.797 E11.5057
G1 X43.987 Y188.616 E11.52141
G1 X43.143 Y188.207 E11.5526
G1 X42.336 Y187.728 E11.58381
G1 X41.768 Y187.331 E11.60686
G1 X41.365 Y187.03 E11.62359
G1 X40.638 Y186.437 E11.65479
G1 X39.964 Y185.785 E11.68598
G1 X39.329 Y185.052 E11.71824
G1 X39.03 Y184.675 E11.73424
G1 X38.713 Y184.257 E11.75169
G1 X38.196 Y183.475 E11.78287
G1 X37.747 Y182.651 E11.81408
G1 X37.527 Y182.175 E11.83152
G1 X37.364 Y181.799 E11.84515
G1 X37.229 Y181.476 E11.8568
G1 X36.913 Y180.593 E11.88799
G1 X36.674 Y179.686 E11.91919
G1 X36.542 Y178.972 E11.94334
G1 X36.473 Y178.514 E11.95874
G1 X36.412 Y178.045 E11.97447
G1 X36.344 Y177.117 E12.00542
G1 X36.336 Y176.856 E12.01411
G1 X36.331 Y176.52 E12.02528
G1 X36.331 Y161.593 E12.52176
G1 X36.342 Y160.894 E12.54501
G1 X36.397 Y159.958 E12.57619
G1 X36.474 Y159.36 E12.59625
G1 X36.606 Y158.529 E12.62423
G1 X36.82 Y157.28 E12.66638
G1 X37.175 Y154.785 E12.7502
G1 X37.462 Y152.264 E12.83459
G1 X37.674 Y149.771 E12.91781
G1 X37.815 Y147.287 E13.00056
G1 X37.887 Y144.729 E13.08567
G1 X37.887 Y142.241 E13.16842
G1 X37.815 Y139.682 E13.25357
G1 X37.675 Y137.221 E13.33556
G1 X37.459 Y134.667 E13.4208
G1 X37.182 Y132.234 E13.50225
G1 X36.684 Y128.844 E13.61621
G1 X36.497 Y127.715 E13.65427
G1 X36.383 Y126.784 E13.68547
G1 X36.351 Y126.117 E13.70768
G1 X36.333 Y125.143 E13.74008
G1 X36.331 Y124.94 E13.74683
G1 X36.332 Y106.324 E14.366
G1 X36.342 Y105.626 E14.38922
G1 X36.388 Y104.767 E14.41783
G1 X36.401 Y104.627 E14.42251
G1 X36.475 Y104.014 E14.44305
G1 X36.53 Y103.647 E14.45539
G1 X36.709 Y102.726 E14.48659
G1 X37.104 Y101.429 E14.53169
G1 X37.163 Y101.271 E14.5373
G1 X37.376 Y100.743 E14.55624
G1 X37.474 Y100.517 E14.56443
G1 X37.883 Y99.673 E14.59562
G1 X38.26 Y99.029 E14.62044
G1 X38.444 Y98.737 E14.63192
G1 X39.133 Y97.764 E14.67158
G1 X39.279 Y97.58 E14.67939
G1 X39.609 Y97.183 E14.69656
G1 X39.905 Y96.855 E14.71125
G1 X40.501 Y96.221 E14.7402
G1 X41.83 Y94.826 E14.80428
G1 X43.501 Y92.97 E14.88734
G1 X45.149 Y91.032 E14.97195
G1 X46.721 Y89.076 E15.05542
G1 X48.247 Y87.061 E15.13949
G1 X49.682 Y85.05 E15.22166
G1 X51.099 Y82.942 E15.30614
G1 X52.464 Y80.78 E15.39118
G1 X53.735 Y78.638 E15.47402
G1 X54.956 Y76.439 E15.55768
G1 X56.106 Y74.222 E15.64074
G1 X56.849 Y72.702 E15.69702
G1 X56.964 Y72.475 E15.70548
G1 X57.165 Y72.087 E15.72001
G1 X57.5 Y71.488 E15.74284
G1 X57.62 Y71.288 E15.7506
G1 X57.963 Y70.751 E15.77179
G1 X58.145 Y70.484 E15.78254
G1 X58.542 Y69.939 E15.80496
G1 X58.694 Y69.743 E15.81321
G1 X59.108 Y69.24 E15.83488
G1 X59.276 Y69.048 E15.84337
G1 X59.805 Y68.485 E15.86906
G1 X60.208 Y68.085 E15.88795
G1 X60.463 Y67.839 E15.89973
G1 X61.284 Y67.075 E15.93703
G1 X63.094 Y65.343 E16.02036
G1 X64.877 Y63.537 E16.10476
G1 X66.578 Y61.715 E16.18767
G1 X68.259 Y59.808 E16.27222
G1 X69.874 Y57.868 E16.35618
G1 X71.42 Y55.9 E16.43942
G1 X72.921 Y53.876 E16.52323
G1 X74.361 Y51.812 E16.60693
G1 X75.164 Y50.608 E16.65506
G1 X75.834 Y49.586 E16.69571
G0 F6000 X76.168 Y49.805
G1 F1200 X76.706 Y49.058 E16.72633
G1 X77.54 Y48.119 E16.7681
G1 X77.654 Y48.005 E16.77346
G1 X78.332 Y47.383 E16.80406
G1 X79.062 Y46.822 E16.83469
G1 X79.838 Y46.326 E16.86532
G1 X80.654 Y45.9 E16.89593
G1 X81.504 Y45.546 E16.92656
G1 X82.382 Y45.268 E16.95719
G1 X83.28 Y45.066 E16.9878
G1 X84.193 Y44.943 E17.01844
G1 X84.791 Y44.906 E17.03837
G1 X85.167 Y44.896 E17.05088
G1 X85.706 Y44.89 E17.06881
G1 X91.09 Y44.891 E17.24788
G1 X91.798 Y44.902 E17.27143
G1 X92.717 Y44.957 E17.30205
G1 X93.628 Y45.09 E17.33268
G1 X94.523 Y45.303 E17.36328
G1 X95.299 Y45.555 E17.39041
G1 X96.681 Y46.066 E17.43942
G1 X99.087 Y46.917 E17.5243
G1 X101.469 Y47.684 E17.60753
G1 X103.899 Y48.392 E17.69172
G1 X106.356 Y49.032 E17.77616
G1 X108.839 Y49.605 E17.86092
G1 X111.299 Y50.1 E17.94438
G1 X113.779 Y50.525 E18.02807
G1 X116.289 Y50.883 E18.11239
G1 X117.127 Y50.98 E18.14045
G1 X118.075 Y51.101 E18.17224
G1 X120.623 Y51.39 E18.25753
G1 X123.174 Y51.608 E18.34268
G1 X125.691 Y51.751 E18.42653
G1 X128.228 Y51.823 E18.51095
G1 X130.737 Y51.823 E18.5944
G1 X133.293 Y51.751 E18.67945
G1 X135.785 Y51.61 E18.76246
G1 X138.366 Y51.391 E18.84862
G1 X139.952 Y51.219 E18.90168
G1 X140.967 Y51.099 E18.93567
G1 X141.9 Y51.03 E18.96679
G1 X142.339 Y51.02 E18.98139
G1 X142.641 Y51.017 E18.99144
G1 X154.381 Y51.018 E19.38191
G1 X155.079 Y51.027 E19.40513
G1 X155.998 Y51.079 E19.43574
G1 X156.909 Y51.21 E19.46635
G1 X157.805 Y51.42 E19.49696
G1 X158.68 Y51.707 E19.52759
G1 X159.527 Y52.069 E19.55823
G1 X160.339 Y52.503 E19.58885
G1 X161.11 Y53.005 E19.61945
G1 X161.835 Y53.573 E19.65008
G1 X162.508 Y54.202 E19.68072
G1 X163.123 Y54.886 E19.71131
G1 X163.677 Y55.621 E19.74193
G1 X164.165 Y56.402 E19.77256
G1 X164.584 Y57.222 E19.80319
G1 X164.93 Y58.075 E19.8338
G1 X165.2 Y58.955 E19.86442
G1 X165.393 Y59.856 E19.89506
G1 X165.507 Y60.769 E19.92567
G1 X165.538 Y61.324 E19.94415
G1 X165.547 Y61.64 E19.95467
G1 X165.551 Y61.942 E19.96471
G1 X165.551 Y83.871 E20.69408
G1 X165.588 Y86.496 E20.78139
G1 X165.695 Y89.004 E20.86488
G1 X165.873 Y91.524 E20.94891
G1 X166.122 Y94.039 E21.03297
G1 X166.441 Y96.528 E21.11643
G1 X166.842 Y99.08 E21.20235
G1 X167.302 Y101.552 E21.28598
G1 X167.581 Y102.884 E21.33124
G1 X167.685 Y103.455 E21.35055
G1 X167.799 Y104.199 E21.37558
G1 X167.915 Y105.447 E21.41727
G1 X167.928 Y105.914 E21.43281
G1 X167.93 Y106.13 E21.43999
G1 X167.929 Y125.282 E22.07699
G1 X167.918 Y126.024 E22.10167
G1 X167.864 Y126.943 E22.13229
G1 X167.792 Y127.503 E22.15107
G1 X167.669 Y128.285 E22.1774
G1 X167.447 Y129.574 E22.2209
G1 X167.092 Y132.052 E22.30416
G1 X166.801 Y134.607 E22.38969
G1 X166.59 Y137.068 E22.47185
G1 X166.444 Y139.62 E22.55687
G1 X166.37 Y142.164 E22.64151
G1 X166.368 Y144.677 E22.7251
G1 X166.438 Y147.221 E22.80974
G1 X166.578 Y149.726 E22.89319
G1 X166.789 Y152.225 E22.9766
G1 X167.076 Y154.759 E23.06142
G1 X167.437 Y157.313 E23.14721
G1 X167.774 Y159.324 E23.21503
G1 X167.887 Y160.237 E23.24563
G1 X167.914 Y160.711 E23.26142
G1 X167.925 Y161.128 E23.2753
G1 X167.93 Y161.601 E23.29103
G1 X167.928 Y176.244 E23.77806
G1 X167.918 Y176.944 E23.80134
G1 X167.87 Y177.808 E23.83012
G1 X167.855 Y177.964 E23.83533
G1 X167.788 Y178.512 E23.8537
G1 X167.737 Y178.854 E23.8652
G1 X167.562 Y179.758 E23.89582
G1 X167.309 Y180.643 E23.92644
G1 X167.126 Y181.149 E23.94433
G1 X166.999 Y181.474 E23.95594
G1 X166.869 Y181.792 E23.96737
G1 X166.809 Y181.932 E23.97243
G1 X166.41 Y182.761 E24.00303
G1 X165.94 Y183.553 E24.03366
G1 X165.587 Y184.06 E24.05421
G1 X165.314 Y184.429 E24.06948
G1 X165.101 Y184.709 E24.08118
G1 X164.503 Y185.409 E24.1118
G1 X163.846 Y186.054 E24.14242
G1 X163.349 Y186.475 E24.16409
G1 X163.031 Y186.728 E24.1776
G1 X162.649 Y187.018 E24.19355
G1 X162.562 Y187.081 E24.19713
G1 X161.794 Y187.588 E24.22773
G1 X160.586 Y188.211 E24.27294
G1 X160.192 Y188.383 E24.28724
G1 X159.826 Y188.535 E24.30042
G1 X158.958 Y188.841 E24.33103
G1 X158.067 Y189.071 E24.36164
G1 X157.453 Y189.182 E24.38239
G1 X157.023 Y189.247 E24.39686
G1 X156.6 Y189.302 E24.41104
G1 X156.473 Y189.316 E24.41529
G1 X155.651 Y189.375 E24.4427
G1 X155.186 Y189.387 E24.45817
G1 X154.957 Y189.389 E24.46579
G1 X49.885 Y189.388 E27.9605
G1 X49.188 Y189.378 E27.98368
G1 X48.363 Y189.334 E28.01116
G1 X48.201 Y189.319 E28.01657
G1 X47.635 Y189.251 E28.03553
G1 X47.302 Y189.202 E28.04673
G1 X46.398 Y189.029 E28.07734
G1 X45.512 Y188.777 E28.10798
G1 X44.982 Y188.586 E28.12672
G1 X44.568 Y188.424 E28.1415
G1 X44.145 Y188.248 E28.15674
G1 X43.317 Y187.847 E28.18734
G1 X42.526 Y187.375 E28.21798
G1 X42.007 Y187.011 E28.23906
G1 X41.604 Y186.71 E28.25579
G1 X40.891 Y186.127 E28.28642
G1 X40.231 Y185.485 E28.31705
G1 X39.642 Y184.804 E28.347
G1 X39.343 Y184.427 E28.363
G1 X39.037 Y184.022 E28.37988
G1 X38.53 Y183.254 E28.41049
G1 X38.091 Y182.444 E28.44113
G1 X37.894 Y182.016 E28.4568
G1 X37.731 Y181.64 E28.47043
G1 X37.6 Y181.325 E28.48178
G1 X37.29 Y180.458 E28.51241
G1 X37.057 Y179.568 E28.54301
G1 X36.937 Y178.912 E28.56519
G1 X36.868 Y178.454 E28.58059
G1 X36.809 Y177.999 E28.59585
G1 X36.744 Y177.105 E28.62566
G1 X36.736 Y176.844 E28.63435
G1 X36.731 Y176.52 E28.64513
G1 X36.731 Y161.599 E29.1414
G1 X36.742 Y160.9 E29.16465
G1 X36.797 Y159.981 E29.19527
G1 X36.869 Y159.422 E29.21402
G1 X37 Y158.596 E29.24184
G1 X37.217 Y157.327 E29.28466
G1 X37.575 Y154.82 E29.36888
G1 X37.855 Y152.345 E29.45173
G1 X38.073 Y149.79 E29.53702
G1 X38.215 Y147.285 E29.62047
G1 X38.287 Y144.74 E29.70515
G1 X38.287 Y142.23 E29.78863
G1 X38.215 Y139.684 E29.87335
G1 X38.072 Y137.163 E29.95733
G1 X37.859 Y134.655 E30.04105
G1 X37.576 Y132.164 E30.12443
G1 X37.079 Y128.778 E30.23825
G1 X36.892 Y127.65 E30.27628
G1 X36.781 Y126.736 E30.30691
G1 X36.751 Y126.11 E30.32775
G1 X36.731 Y124.94 E30.36667
G1 X36.732 Y106.33 E30.98564
G1 X36.742 Y105.632 E31.00886
G1 X36.786 Y104.804 E31.03644
G1 X36.799 Y104.664 E31.04112
G1 X36.871 Y104.073 E31.06092
G1 X36.926 Y103.706 E31.07326
G1 X37.102 Y102.802 E31.10389
G1 X37.479 Y101.569 E31.14678
G1 X37.538 Y101.411 E31.15239
G1 X37.743 Y100.902 E31.17064
G1 X37.841 Y100.676 E31.17883
G1 X38.244 Y99.848 E31.20946
G1 X38.598 Y99.242 E31.2328
G1 X38.782 Y98.95 E31.24428
G1 X39.446 Y98.012 E31.2825
G1 X39.592 Y97.828 E31.29032
G1 X39.912 Y97.445 E31.30692
G1 X40.196 Y97.129 E31.32105
G1 X40.79 Y96.497 E31.34989
G1 X42.117 Y95.104 E31.41388
G1 X43.82 Y93.214 E31.4985
G1 X45.447 Y91.3 E31.58205
G1 X47.039 Y89.318 E31.66661
G1 X48.558 Y87.312 E31.7503
G1 X50.023 Y85.259 E31.83418
G1 X51.453 Y83.132 E31.91943
G1 X52.788 Y81.019 E32.00256
G1 X54.086 Y78.83 E32.0872
G1 X55.303 Y76.638 E32.17059
G1 X56.48 Y74.369 E32.25561
G1 X57.209 Y72.878 E32.31081
G1 X57.319 Y72.659 E32.31896
G1 X57.52 Y72.271 E32.33349
G1 X57.843 Y71.693 E32.35552
G1 X57.963 Y71.493 E32.36327
G1 X58.293 Y70.977 E32.38365
G1 X58.475 Y70.71 E32.39439
G1 X58.858 Y70.184 E32.41603
G1 X59.01 Y69.988 E32.42428
G1 X59.409 Y69.504 E32.44515
G1 X59.577 Y69.312 E32.45363
G1 X60.087 Y68.769 E32.47841
G1 X60.49 Y68.369 E32.49729
G1 X60.736 Y68.132 E32.50866
G1 X61.506 Y67.416 E32.54363
G1 X63.39 Y65.613 E32.63036
G1 X65.154 Y63.827 E32.71385
G1 X66.887 Y61.97 E32.79833
G1 X68.568 Y60.062 E32.88291
G1 X70.163 Y58.147 E32.9658
G1 X71.74 Y56.14 E33.0507
G1 X73.254 Y54.097 E33.13527
G1 X74.697 Y52.03 E33.21912
