;FLAVOR:Marlin
;TIME:1253
;Filament used: 1.26206m
;Layer height: 0.2
;MINX:78.957
;MINY:76.007
;MINZ:0.24
;MAXX:135.248
;MAXY:147.108
;MAXZ:6.09
;Generated with Cura_SteamEngine 4.8.0
M140 S60
M105
M190 S60
M104 S180
M105
M109 S180
M82 ;absolute extrusion mode
; Ender 3 Custom Start G-code
G92 E0 ; Reset Extruder
G28 ; Home all axes
G1 Z2.0 F3000 ; Move Z Axis up little to prevent scratching of Heat Bed
G1 X0.1 Y20 Z0.3 F5000.0 ; Move to start position
G1 X0.1 Y200.0 Z0.3 F1500.0 E15 ; Draw the first line
G1 X0.4 Y200.0 Z0.3 F5000.0 ; Move to side a little
G1 X0.4 Y20 Z0.3 F1500.0 E30 ; Draw the second line
G92 E0 ; Reset Extruder
G1 Z2.0 F3000 ; Move Z Axis up little to prevent scratching of Heat Bed
G1 X5 Y20 Z0.3 F5000.0 ; Move over to prevent blob squish
G92 E0
G92 E0
G1 F3600 E-6
;LAYER_COUNT:25
;LAYER:-6
M107
G0 F7200 X83.413 Y80.622 Z0.24
;TYPE:SUPPORT-INTERFACE
G1 F3600 E0
G1 F1350 X83.57 Y80.466 E0.01767
G1 X84.266 Y79.82 E0.09347
G1 X84.405 Y79.701 E0.10807
G1 X85.096 Y79.147 E0.17877
G1 X85.235 Y79.043 E0.19263
G1 X85.95 Y78.551 E0.26191
G1 X86.134 Y78.434 E0.27932
G1 X86.89 Y77.991 E0.34926
G1 X87.032 Y77.914 E0.36216
G1 X87.864 Y77.505 E0.43616
G1 X87.977 Y77.455 E0.44602
G1 X88.827 Y77.112 E0.51919
G1 X89 Y77.05 E0.53386
G1 X89.838 Y76.781 E0.60411
G1 X90.002 Y76.735 E0.61771
G1 X90.874 Y76.523 E0.68935
G1 X91.036 Y76.49 E0.70254
G1 X91.929 Y76.342 E0.7748
G1 X92.106 Y76.319 E0.78905
G1 X93 Y76.236 E0.86072
G1 X93.142 Y76.229 E0.87206
G1 X93.904 Y76.208 E0.93291
G1 X94.172 Y76.217 E0.95432
G1 X94.507 Y76.218 E0.98106
G1 X94.87 Y76.208 E1.01005
G1 X95.96 Y76.209 E1.09706
G1 X96.108 Y76.214 E1.10888
G1 X96.372 Y76.216 E1.12995
G1 X96.875 Y76.208 E1.17011
G1 X97.899 Y76.245 E1.2519
G1 X98.022 Y76.254 E1.26175
G1 X98.939 Y76.356 E1.3354
G1 X99.114 Y76.381 E1.34951
G1 X100.003 Y76.545 E1.42167
G1 X100.126 Y76.573 E1.43174
G1 X101.02 Y76.807 E1.5055
G1 X101.183 Y76.856 E1.51909
G1 X102.025 Y77.142 E1.59007
G1 X102.191 Y77.206 E1.60428
G1 X102.994 Y77.547 E1.67392
G1 X103.183 Y77.635 E1.69056
G1 X103.977 Y78.043 E1.76182
G1 X104.094 Y78.11 E1.77258
G1 X104.873 Y78.584 E1.84537
G1 X105.024 Y78.684 E1.85983
G1 X105.738 Y79.195 E1.92991
G1 X105.886 Y79.308 E1.94478
G1 X106.578 Y79.885 E2.0167
G1 X106.686 Y79.981 E2.02823
G1 X107.198 Y80.463 E2.08436
G1 X107.318 Y80.583 E2.09791
G1 X108 Y81.316 E2.17783
G1 X108.119 Y81.455 E2.19244
G1 X108.673 Y82.146 E2.26313
G1 X108.777 Y82.285 E2.27699
G1 X109.269 Y83 E2.34627
G1 X109.386 Y83.184 E2.36368
G1 X109.826 Y83.933 E2.43302
G1 X109.899 Y84.067 E2.4452
G1 X110.304 Y84.89 E2.51842
G1 X110.365 Y85.027 E2.53039
G1 X110.707 Y85.872 E2.60316
G1 X110.759 Y86.018 E2.61553
G1 X111.051 Y86.925 E2.69159
G1 X111.296 Y87.548 E2.74503
G1 X111.624 Y88.147 E2.79954
G1 X112.025 Y88.699 E2.854
G1 X112.493 Y89.197 E2.90856
G1 X113.019 Y89.632 E2.96304
G1 X113.596 Y89.998 E3.01758
G1 X114.215 Y90.286 E3.07208
G1 X114.865 Y90.496 E3.12661
G1 X115.535 Y90.62 E3.181
G1 X115.733 Y90.632 E3.19683
G1 X115.733 Y90.652 E3.19843
G1 X116.241 Y90.66 E3.23899
G1 X116.549 Y90.672 E3.26359
G1 X117.438 Y90.73 E3.3347
G1 X117.732 Y90.76 E3.35829
G1 X118.492 Y90.855 E3.41943
G1 X118.75 Y90.894 E3.44026
G1 X119.636 Y91.057 E3.51217
G1 X119.931 Y91.119 E3.53624
G1 X120.911 Y91.367 E3.61693
G1 X121.244 Y91.465 E3.64464
G1 X122.068 Y91.73 E3.71373
G1 X122.38 Y91.844 E3.74025
G1 X123.158 Y92.147 E3.80689
G1 X123.408 Y92.254 E3.8286
G1 X124.275 Y92.657 E3.90492
G1 X124.515 Y92.778 E3.92637
G1 X125.283 Y93.192 E3.99602
G1 X125.51 Y93.323 E4.01694
G1 X126.4 Y93.88 E4.10075
G1 X126.632 Y94.038 E4.12316
G1 X127.235 Y94.469 E4.18232
G1 X127.412 Y94.602 E4.2
G1 X127.529 Y94.693 E4.21183
G1 X128.157 Y95.198 E4.27615
G1 X128.381 Y95.387 E4.29955
G1 X129.06 Y96.007 E4.37295
G1 X129.34 Y96.279 E4.40411
G1 X129.994 Y96.961 E4.47953
G1 X130.142 Y97.125 E4.49717
G1 X130.682 Y97.759 E4.56364
G1 X130.879 Y98.003 E4.58868
G1 X131.401 Y98.694 E4.65781
G1 X131.596 Y98.971 E4.68485
G1 X132.035 Y99.633 E4.74825
G1 X132.117 Y99.761 E4.76039
G1 X132.249 Y99.978 E4.78066
G1 X132.725 Y100.808 E4.85704
G1 X132.844 Y101.032 E4.87729
G1 X133.212 Y101.778 E4.94369
G1 X133.347 Y102.069 E4.96929
G1 X133.65 Y102.783 E5.03121
G1 X133.764 Y103.068 E5.05571
G1 X134.086 Y103.979 E5.13284
G1 X134.138 Y104.135 E5.14596
G1 X134.194 Y104.313 E5.16086
G1 X134.433 Y105.161 E5.23119
G1 X134.502 Y105.436 E5.25382
G1 X134.703 Y106.37 E5.33008
G1 X134.758 Y106.666 E5.35412
G1 X134.888 Y107.52 E5.42307
G1 X134.926 Y107.84 E5.44879
G1 X135.004 Y108.697 E5.51749
G1 X135.02 Y108.951 E5.5378
G1 X135.048 Y109.927 E5.61574
G1 X135.047 Y110.182 E5.6361
G1 X135.019 Y111.067 E5.70678
G1 X135.001 Y111.355 E5.72981
G1 X134.916 Y112.251 E5.80166
G1 X134.88 Y112.551 E5.82577
G1 X134.747 Y113.403 E5.89461
G1 X134.683 Y113.734 E5.92152
G1 X134.472 Y114.689 E5.99959
G1 X134.399 Y114.966 E6.02246
G1 X134.164 Y115.778 E6.08993
G1 X134.078 Y116.047 E6.11248
G1 X133.772 Y116.908 E6.18542
G1 X133.682 Y117.14 E6.20528
G1 X133.34 Y117.947 E6.27525
G1 X133.256 Y118.131 E6.29139
G1 X133.189 Y118.271 E6.30378
G1 X132.777 Y119.095 E6.37732
G1 X132.651 Y119.329 E6.39853
G1 X132.248 Y120.024 E6.46266
G1 X132.059 Y120.331 E6.49144
G1 X131.529 Y121.126 E6.56771
G1 X131.386 Y121.328 E6.58747
G1 X130.855 Y122.026 E6.65748
G1 X130.653 Y122.277 E6.68319
G1 X130.111 Y122.91 E6.74972
G1 X129.884 Y123.158 E6.77655
G1 X129.284 Y123.775 E6.84525
G1 X129.182 Y123.877 E6.85677
G1 X129.017 Y124.036 E6.87506
G1 X128.381 Y124.613 E6.94361
G1 X128.11 Y124.842 E6.97193
G1 X127.463 Y125.36 E7.03809
G1 X127.249 Y125.522 E7.05951
G1 X126.54 Y126.026 E7.12895
G1 X126.231 Y126.23 E7.15851
G1 X125.46 Y126.706 E7.23083
G1 X125.194 Y126.858 E7.25529
G1 X124.433 Y127.264 E7.32414
G1 X124.129 Y127.415 E7.35124
G1 X123.335 Y127.779 E7.42096
G1 X123.092 Y127.881 E7.442
G1 X122.118 Y128.252 E7.52519
G1 X121.897 Y128.328 E7.54385
G1 X121.183 Y128.554 E7.60363
G1 X120.873 Y128.642 E7.62935
G1 X119.966 Y128.87 E7.70401
G1 X119.641 Y128.942 E7.73058
G1 X118.758 Y129.105 E7.80226
G1 X118.482 Y129.146 E7.82453
G1 X117.617 Y129.253 E7.8941
G1 X117.316 Y129.281 E7.91823
G1 X116.504 Y129.329 E7.98316
G1 X115.839 Y129.412 E8.03666
G1 X115.177 Y129.582 E8.09122
G1 X114.542 Y129.833 E8.14572
G1 X113.945 Y130.163 E8.20017
G1 X113.393 Y130.565 E8.25468
G1 X112.896 Y131.033 E8.30918
G1 X112.463 Y131.561 E8.36368
G1 X112.099 Y132.14 E8.41828
G1 X111.812 Y132.758 E8.47267
G1 X111.604 Y133.41 E8.5273
G1 X111.477 Y134.124 E8.58519
G1 X111.466 Y134.226 E8.59338
G1 X111.439 Y134.408 E8.60806
G1 X111.277 Y135.288 E8.67949
G1 X111.247 Y135.422 E8.69045
G1 X111.016 Y136.307 E8.76346
G1 X110.964 Y136.479 E8.7778
G1 X110.678 Y137.321 E8.84879
G1 X110.614 Y137.487 E8.86299
G1 X110.273 Y138.29 E8.93263
G1 X110.192 Y138.465 E8.94802
G1 X109.788 Y139.251 E9.01857
G1 X109.71 Y139.39 E9.03129
G1 X109.236 Y140.169 E9.10408
G1 X109.136 Y140.32 E9.11854
G1 X108.625 Y141.034 E9.18862
G1 X108.512 Y141.182 E9.20349
G1 X107.935 Y141.874 E9.27541
G1 X107.839 Y141.982 E9.28694
G1 X107.357 Y142.494 E9.34307
G1 X107.2 Y142.65 E9.36074
G1 X106.515 Y143.286 E9.43536
G1 X106.367 Y143.413 E9.45092
G1 X105.674 Y143.969 E9.52185
G1 X105.535 Y144.073 E9.5357
G1 X104.82 Y144.565 E9.60498
G1 X104.636 Y144.682 E9.62239
G1 X103.88 Y145.125 E9.69233
G1 X103.738 Y145.202 E9.70523
G1 X102.91 Y145.609 E9.77888
G1 X102.793 Y145.661 E9.7891
G1 X101.938 Y146.006 E9.86269
G1 X101.775 Y146.064 E9.8765
G1 X100.932 Y146.335 E9.94719
G1 X100.768 Y146.381 E9.96078
G1 X99.896 Y146.593 E10.03242
G1 X99.734 Y146.626 E10.04562
G1 X98.841 Y146.774 E10.11787
G1 X98.664 Y146.797 E10.13212
G1 X97.77 Y146.88 E10.20379
G1 X97.628 Y146.887 E10.21514
G1 X96.88 Y146.908 E10.27487
G1 X96.612 Y146.899 E10.29627
G1 X96.277 Y146.898 E10.32302
G1 X95.914 Y146.908 E10.352
G1 X94.823 Y146.907 E10.43909
G1 X94.675 Y146.902 E10.45091
G1 X94.411 Y146.9 E10.47199
G1 X93.898 Y146.908 E10.51294
G1 X92.871 Y146.871 E10.59497
G1 X92.748 Y146.862 E10.60482
G1 X91.831 Y146.76 E10.67847
G1 X91.656 Y146.735 E10.69258
G1 X90.767 Y146.571 E10.76474
G1 X90.644 Y146.543 E10.77481
G1 X89.75 Y146.309 E10.84858
G1 X89.587 Y146.26 E10.86216
G1 X88.745 Y145.974 E10.93315
G1 X88.579 Y145.91 E10.94735
G1 X87.776 Y145.569 E11.01699
G1 X87.587 Y145.481 E11.03363
G1 X86.793 Y145.073 E11.10489
G1 X86.676 Y145.006 E11.11565
G1 X85.897 Y144.532 E11.18844
G1 X85.746 Y144.432 E11.2029
G1 X85.032 Y143.921 E11.27299
G1 X84.884 Y143.808 E11.28785
G1 X84.192 Y143.231 E11.35977
G1 X84.084 Y143.135 E11.37131
G1 X83.572 Y142.653 E11.42744
G1 X83.412 Y142.492 E11.44556
G1 X82.768 Y141.798 E11.52113
G1 X82.651 Y141.661 E11.53551
G1 X82.101 Y140.975 E11.6057
G1 X81.985 Y140.819 E11.62122
G1 X81.501 Y140.116 E11.68935
G1 X81.384 Y139.932 E11.70675
G1 X80.941 Y139.176 E11.7767
G1 X80.864 Y139.034 E11.78959
G1 X80.455 Y138.202 E11.8636
G1 X80.405 Y138.089 E11.87346
G1 X80.056 Y137.225 E11.94784
G1 X80 Y137.067 E11.96122
G1 X79.728 Y136.219 E12.03231
G1 X79.686 Y136.069 E12.04474
G1 X79.47 Y135.181 E12.1177
G1 X79.441 Y135.038 E12.12934
G1 X79.291 Y134.132 E12.20265
G1 X79.269 Y133.96 E12.21649
G1 X79.186 Y133.061 E12.28856
G1 X79.178 Y132.91 E12.30063
G1 X79.158 Y132.191 E12.35804
G1 X79.158 Y90.939 E15.65096
G1 X79.194 Y89.933 E15.73131
G1 X79.204 Y89.798 E15.74212
G1 X79.304 Y88.895 E15.81464
G1 X79.333 Y88.698 E15.83053
G1 X79.493 Y87.828 E15.90115
G1 X79.523 Y87.694 E15.91211
G1 X79.754 Y86.809 E15.98512
G1 X79.806 Y86.637 E15.99946
G1 X80.092 Y85.795 E16.07044
G1 X80.156 Y85.629 E16.08465
G1 X80.497 Y84.826 E16.15429
G1 X80.578 Y84.651 E16.16968
G1 X80.993 Y83.843 E16.24219
G1 X81.06 Y83.726 E16.25295
G1 X81.534 Y82.947 E16.32574
G1 X81.634 Y82.796 E16.3402
G1 X82.15 Y82.075 E16.41097
G1 X82.258 Y81.934 E16.42515
G1 X82.835 Y81.242 E16.49707
G1 X82.931 Y81.134 E16.5086
G1 X83.413 Y80.622 E16.56473
G0 F7200 X83.2 Y80.848
G1 F1350 X83.2 Y142.263 E21.46715
G1 F3600 E15.46715
G0 F7200 X84.8 Y143.737
G1 F3600 E21.46715
G1 F1350 X84.8 Y79.384 E26.60408
G0 F7200 X86.4 Y78.278
G1 F1350 X86.4 Y144.838 E31.91719
G0 F7200 X88 Y145.664
G1 F1350 X88 Y77.445 E37.36272
G0 F7200 X89.6 Y76.857
G1 F1350 X89.6 Y146.263 E42.90301
G0 F7200 X91.2 Y146.65
G1 F1350 X91.2 Y76.462 E48.50572
G0 F7200 X92.8 Y76.254
G1 F1350 X92.8 Y146.865 E54.14219
G0 F7200 X94.4 Y146.901
G1 F1350 X94.4 Y76.218 E59.78442
G0 F7200 X96 Y76.211
G1 F1350 X96 Y146.906 E65.4276
G0 F7200 X97.6 Y146.888
G1 F1350 X97.6 Y76.235 E71.06743
G0 F7200 X99.2 Y76.397
G1 F1350 X99.2 Y146.715 E76.68051
G0 F7200 X100.8 Y146.373
G1 F1350 X100.8 Y76.75 E82.23812
G0 F7200 X102.4 Y77.295
G1 F1350 X102.4 Y145.82 E87.70808
G0 F7200 X104 Y145.055
G1 F1350 X104 Y78.057 E93.05615
G0 F7200 X105.6 Y79.097
G1 F1350 X105.6 Y144.025 E98.23899
G1 F3600 E92.23899
G0 F7200 X107.2 Y142.65
G1 F3600 E98.23899
G1 F1350 X107.2 Y80.465 E103.20286
G1 F3600 E97.20286
G0 F7200 X108.8 Y82.319
G1 F3600 E103.20286
G1 F1350 X108.8 Y140.79 E107.87027
G1 F3600 E101.87027
G0 F7200 X110.4 Y137.991
G1 F3600 E107.87027
G1 F1350 X110.4 Y85.114 E112.09114
G1 F3600 E106.09114
G0 F7200 X112 Y88.665
G1 F3600 E112.09114
G1 F1350 X112 Y132.354 E115.57859
G1 F3600 E109.57859
G0 F7200 X113.6 Y130.415
G1 F3600 E115.57859
G1 F1350 X113.6 Y90 E118.80469
G0 F7200 X115.2 Y90.558
G1 F1350 X115.2 Y129.577 E121.91935
G0 F7200 X116.8 Y129.312
G1 F1350 X116.8 Y90.689 E125.00241
G0 F7200 X118.4 Y90.844
G1 F1350 X118.4 Y129.157 E128.06072
G0 F7200 X120 Y128.862
G1 F1350 X120 Y91.137 E131.07209
G0 F7200 X121.6 Y91.58
G1 F1350 X121.6 Y128.423 E134.01306
G0 F7200 X123.2 Y127.836
G1 F1350 X123.2 Y92.165 E136.86047
G0 F7200 X124.8 Y92.932
G1 F1350 X124.8 Y127.069 E139.58543
G0 F7200 X126.4 Y126.119
G1 F1350 X126.4 Y93.88 E142.15889
G0 F7200 X128 Y95.072
G1 F1350 X128 Y124.931 E144.54236
G1 F3600 E138.54236
G0 F7200 X129.6 Y123.451
G1 F3600 E144.54236
G1 F1350 X129.6 Y96.551 E146.68964
G1 F3600 E140.68964
G0 F7200 X131.2 Y98.428
G1 F3600 E146.68964
G1 F1350 X131.2 Y121.573 E148.53717
G1 F3600 E142.53717
G0 F7200 X132.8 Y119.049
G1 F3600 E148.53717
G1 F1350 X132.8 Y100.95 E149.98191
G1 F3600 E143.98191
G0 F7200 X134.4 Y105.044
G1 F3600 E149.98191
G1 F1350 X134.4 Y114.963 E150.77369
G1 F3600 E144.77369
G0 F7200 X81.6 Y140.259
G1 F3600 E150.77369
G1 F1350 X81.6 Y82.847 E155.35656
G1 F3600 E149.35656
G0 F7200 X80 Y86.065
G1 F3600 E155.35656
G1 F1350 X80 Y137.067 E159.42776
G0 F300 X80 Y137.067 Z0.54
G0 F7200 X80.683 Y138.665
;TIME_ELAPSED:103.455750
;LAYER:-5
;TYPE:SUPPORT
G1 F1350 X87.403 Y145.386 E160.3761
G1 X86.793 Y145.072 E160.44456
G1 X86.675 Y145.004 E160.45815
G1 X85.896 Y144.531 E160.54908
G1 X85.745 Y144.431 E160.56715
G1 X85.032 Y143.92 E160.65468
G1 X84.883 Y143.807 E160.67334
G1 X84.192 Y143.23 E160.76316
G1 X84.084 Y143.134 E160.77758
G1 X83.572 Y142.652 E160.84775
G1 X83.412 Y142.491 E160.87039
G1 X82.768 Y141.797 E160.96486
G1 X82.65 Y141.66 E160.98291
G1 X82.1 Y140.974 E161.07064
G1 X81.985 Y140.818 E161.08998
G1 X81.5 Y140.115 E161.1752
G1 X81.384 Y139.931 E161.1969
G1 X80.941 Y139.175 E161.28433
G1 X80.864 Y139.033 E161.30045
G1 F3600 E155.30045
G0 F7200 X87.403 Y145.386
G1 F3600 E161.30045
G1 F1350 X87.586 Y145.48 E161.32098
G1 X87.775 Y145.567 E161.34174
G1 X88.578 Y145.909 E161.42882
G1 X88.744 Y145.973 E161.44658
G1 X89.587 Y146.259 E161.5354
G1 X89.734 Y146.303 E161.55071
G1 X79.764 Y136.333 E162.95759
G1 X79.727 Y136.218 E162.96964
G1 X79.685 Y136.067 E162.98528
G1 X79.47 Y135.18 E163.07635
G1 X79.44 Y135.037 E163.09093
G1 X79.352 Y134.506 E163.14463
G1 X91.561 Y146.716 E164.86752
G1 X91.655 Y146.733 E164.87706
G1 X91.831 Y146.759 E164.89481
G1 X92.747 Y146.861 E164.98677
G1 X92.871 Y146.87 E164.99918
G1 X93.139 Y146.879 E165.02593
G1 X79.177 Y132.917 E166.99612
G1 X79.177 Y132.909 E166.99692
G1 X79.158 Y132.19 E167.06869
G1 X79.157 Y131.483 E167.13923
G1 X94.574 Y146.9 E169.31474
G1 X94.674 Y146.901 E169.32472
G1 X94.823 Y146.905 E169.33959
G1 X95.914 Y146.907 E169.44845
G1 X95.993 Y146.904 E169.45634
G1 X79.157 Y130.069 E171.83201
G1 X79.157 Y128.655 E171.9731
G1 X97.395 Y146.892 E174.54661
G1 X97.628 Y146.886 E174.56986
G1 X97.769 Y146.879 E174.58395
G1 X98.664 Y146.796 E174.67364
G1 X98.707 Y146.79 E174.67797
G1 X79.157 Y127.241 E177.43661
G1 X79.157 Y125.826 E177.5778
G1 X99.917 Y146.586 E180.50726
G1 X100.767 Y146.38 E180.59453
G1 X100.932 Y146.334 E180.61162
G1 X101.043 Y146.298 E180.62327
G1 X79.157 Y124.412 E183.71162
G1 X79.157 Y122.998 E183.85271
G1 X102.099 Y145.939 E187.09
G1 X102.792 Y145.66 E187.16454
G1 X102.91 Y145.608 E187.17741
G1 X103.091 Y145.518 E187.19758
G1 X79.157 Y121.584 E190.57492
G1 X79.157 Y120.169 E190.71611
G1 X104.026 Y145.038 E194.2254
G1 X104.636 Y144.681 E194.29592
G1 X104.82 Y144.563 E194.31773
G1 X104.906 Y144.504 E194.32814
G1 X79.157 Y118.755 E197.9616
G1 X79.157 Y117.341 E198.10269
G1 X105.735 Y143.918 E201.85306
G1 X106.367 Y143.412 E201.93385
G1 X106.514 Y143.285 E201.95323
G0 F7200 X106.515 Y143.284
G1 F1350 X79.157 Y115.927 E205.81367
G1 X79.157 Y114.513 E205.95476
G1 X107.246 Y142.602 E209.91842
G1 X107.357 Y142.493 E209.93394
G1 X107.839 Y141.981 E210.00411
G1 X107.934 Y141.875 E210.01831
G1 X79.157 Y113.098 E214.07905
G1 X79.157 Y111.684 E214.22014
G1 X108.574 Y141.101 E218.3712
G1 X108.625 Y141.033 E218.37968
G1 X109.136 Y140.319 E218.46729
G1 X109.164 Y140.277 E218.47233
G1 X79.157 Y110.27 E222.70664
G1 X79.157 Y108.856 E222.84773
G1 X109.703 Y139.401 E227.15803
G1 X109.71 Y139.389 E227.15941
G1 X109.788 Y139.25 E227.17532
G1 X110.188 Y138.472 E227.26261
G1 X79.157 Y107.442 E231.64135
G1 X79.157 Y106.027 E231.78253
