;FLAVOR:Marlin
;TIME:17993
;Filament used: 23.4596m
;Layer height: 0.28
;MINX:25.001
;MINY:49
;MINZ:0.28
;MAXX:195
;MAXY:171
;MAXZ:35.84
;Generated with Cura_SteamEngine 4.8.0
M140 S60
M105
M190 S60
M104 S200
M105
M109 S200
M82 ;absolute extrusion mode
; Ender 3 Custom Start G-code
G92 E0 ; Reset Extruder
G28 ; Home all axes
G1 Z2.0 F3000 ; Move Z Axis up little to prevent scratching of Heat Bed
G1 X0.1 Y20 Z0.3 F5000.0 ; Move to start position
G1 X0.1 Y200.0 Z0.3 F1500.0 E15 ; Draw the first line
G1 X0.4 Y200.0 Z0.3 F5000.0 ; Move to side a little
G1 X0.4 Y20 Z0.3 F1500.0 E30 ; Draw the second line
G92 E0 ; Reset Extruder
G1 Z2.0 F3000 ; Move Z Axis up little to prevent scratching of Heat Bed
G1 X5 Y20 Z0.3 F5000.0 ; Move over to prevent blob squish
G92 E0
G92 E0
G1 F1500 E-6.5
;LAYER_COUNT:128
;LAYER:0
M107
G0 F6000 X31.297 Y50.877 Z0.28
;TYPE:SKIRT
G1 F1500 E0
G1 F1200 X32.12 Y50.427 E0.04368
G1 X32.566 Y50.219 E0.06659
G1 X32.958 Y50.047 E0.08652
G1 X33.393 Y49.867 E0.10845
G1 X34.279 Y49.558 E0.15214
G1 X35.187 Y49.325 E0.19579
G1 X35.817 Y49.212 E0.22559
G1 X36.275 Y49.143 E0.24716
G1 X36.744 Y49.082 E0.26918
G1 X37.654 Y49.015 E0.31167
G1 X37.902 Y49.007 E0.32322
G1 X38.257 Y49.001 E0.33976
G1 X103.449 Y49.001 E3.37537
G1 X104.155 Y49.011 E3.40825
G1 X104.468 Y49.02 E3.42283
G1 X105.707 Y49.074 E3.48058
G1 X106.321 Y49.108 E3.50921
G1 X108.853 Y49.177 E3.62715
G1 X111.352 Y49.175 E3.74352
G1 X114.886 Y49.053 E3.90817
G1 X115.117 Y49.041 E3.91894
G1 X115.467 Y49.028 E3.93525
G1 X116.752 Y49.002 E3.9951
G1 X116.975 Y49 E4.00548
G1 X181.463 Y49.002 E7.00832
G1 X182.166 Y49.012 E7.04105
G1 X182.764 Y49.037 E7.06892
G1 X182.895 Y49.046 E7.07504
G1 X183.373 Y49.089 E7.09739
G1 X183.577 Y49.112 E7.10694
G1 X184.504 Y49.257 E7.15063
G1 X185.185 Y49.416 E7.1832
G1 X185.735 Y49.563 E7.20971
G1 X186.63 Y49.844 E7.25339
G1 X187.498 Y50.199 E7.29706
G1 X188.332 Y50.628 E7.34073
G1 X188.913 Y50.982 E7.37241
G1 X189.297 Y51.233 E7.39377
G1 X190.06 Y51.78 E7.43748
G1 X190.773 Y52.389 E7.48115
G1 X191.582 Y53.226 E7.53535
G1 X191.708 Y53.371 E7.54429
G1 X191.961 Y53.672 E7.5626
G1 X192.18 Y53.943 E7.57883
G1 X192.737 Y54.697 E7.62248
G1 X193.265 Y55.561 E7.66963
G1 X193.449 Y55.896 E7.68742
G1 X193.865 Y56.737 E7.73111
G1 X194.233 Y57.683 E7.77838
G1 X194.37 Y58.09 E7.79838
G1 X194.631 Y58.991 E7.84205
G1 X194.876 Y60.366 E7.90709
G1 X194.906 Y60.632 E7.91955
G1 X194.973 Y61.633 E7.96627
G1 X194.998 Y62.82 E8.02155
G1 X195 Y63.052 E8.03236
G1 X194.998 Y157.457 E12.42825
G1 X194.988 Y158.155 E12.46075
G1 X194.964 Y158.734 E12.48774
G1 X194.954 Y158.883 E12.49469
G1 X194.909 Y159.385 E12.51816
G1 X194.881 Y159.632 E12.52973
G1 X194.736 Y160.559 E12.57342
G1 X194.503 Y161.499 E12.61852
G1 X194.44 Y161.713 E12.62891
G1 X194.253 Y162.29 E12.65715
G1 X194.183 Y162.487 E12.66689
G1 X193.832 Y163.357 E12.71057
G1 X193.593 Y163.849 E12.73604
G1 X193.431 Y164.157 E12.75224
G1 X193.323 Y164.354 E12.7627
G1 X192.837 Y165.156 E12.80637
G1 X192.223 Y165.991 E12.85463
G1 X191.941 Y166.339 E12.87549
G1 X191.32 Y167.042 E12.91917
G1 X190.626 Y167.703 E12.96379
G1 X190.485 Y167.826 E12.97251
G1 X190.109 Y168.14 E12.99532
G1 X189.794 Y168.391 E13.01407
G1 X189.036 Y168.944 E13.05776
G1 X188.234 Y169.43 E13.10143
G1 X187.394 Y169.846 E13.14508
G1 X186.21 Y170.29 E13.20396
G1 X185.905 Y170.385 E13.21883
G1 X185.565 Y170.485 E13.23533
G1 X185.319 Y170.553 E13.24722
G1 X184.405 Y170.765 E13.29091
G1 X183.918 Y170.844 E13.31388
G1 X183.797 Y170.861 E13.31957
G1 X183.154 Y170.932 E13.34969
G1 X182.882 Y170.954 E13.3624
G1 X182.267 Y170.987 E13.39108
G1 X181.863 Y170.997 E13.4099
G1 X181.591 Y171 E13.42256
G1 X116.552 Y170.999 E16.45105
G1 X115.847 Y170.989 E16.48388
G1 X115.541 Y170.98 E16.49814
G1 X114.271 Y170.926 E16.55733
G1 X113.639 Y170.891 E16.5868
G1 X111.123 Y170.822 E16.704
G1 X108.599 Y170.825 E16.82153
G1 X106.084 Y170.899 E16.93869
G1 X104.572 Y170.976 E17.00918
G1 X104.114 Y170.993 E17.03053
G1 X103.743 Y170.999 E17.0478
G1 X38.549 Y170.999 E20.08351
G1 X37.852 Y170.989 E20.11597
G1 X36.996 Y170.943 E20.15588
G1 X36.834 Y170.928 E20.16346
G1 X36.247 Y170.858 E20.19099
G1 X35.914 Y170.809 E20.20666
G1 X34.992 Y170.633 E20.25037
G1 X34.09 Y170.379 E20.294
G1 X33.501 Y170.168 E20.32313
G1 X33.08 Y170.003 E20.34419
G1 X32.658 Y169.827 E20.36548
G1 X31.814 Y169.418 E20.40915
G1 X31.007 Y168.939 E20.45285
G1 X30.447 Y168.547 E20.48468
G1 X30.029 Y168.235 E20.50897
G1 X29.302 Y167.643 E20.55262
G1 X28.628 Y166.99 E20.59632
G1 X27.989 Y166.254 E20.64171
G1 X27.725 Y165.921 E20.66149
G1 X27.459 Y165.571 E20.68196
G1 X27.405 Y165.497 E20.68623
G1 X26.885 Y164.717 E20.72988
G1 X26.434 Y163.895 E20.77354
G1 X26.213 Y163.421 E20.79789
G1 X26.042 Y163.03 E20.81776
G1 X25.867 Y162.607 E20.83908
G1 X25.558 Y161.721 E20.88277
G1 X25.325 Y160.813 E20.92642
G1 X25.212 Y160.183 E20.95623
G1 X25.143 Y159.725 E20.97779
G1 X25.082 Y159.256 E20.99982
G1 X25.014 Y158.324 E21.04333
G1 X25.006 Y158.06 E21.05563
G1 X25.001 Y157.727 E21.07114
G1 X25.001 Y62.549 E25.50302
G1 X25.011 Y61.851 E25.53553
G1 X25.057 Y60.989 E25.57572
G1 X25.072 Y60.828 E25.58325
G1 X25.139 Y60.269 E25.60947
G1 X25.187 Y59.938 E25.62504
G1 X25.361 Y59.017 E25.66869
G1 X25.613 Y58.113 E25.71238
G1 X25.835 Y57.494 E25.74301
G1 X26.002 Y57.069 E25.76427
G1 X26.165 Y56.675 E25.78412
G1 X26.573 Y55.83 E25.82782
G1 X27.051 Y55.023 E25.87149
G1 X27.453 Y54.447 E25.9042
G1 X27.765 Y54.029 E25.92848
G1 X28.357 Y53.302 E25.97214
G1 X29.01 Y52.628 E26.01584
G1 X29.731 Y52.001 E26.06033
G1 X30.049 Y51.748 E26.07925
G1 X30.428 Y51.46 E26.10142
G1 X30.516 Y51.396 E26.10648
G1 X31.297 Y50.877 E26.15015
G0 F6000 X31.519 Y51.211
G1 F1200 X32.727 Y50.585 E26.2135
G1 X33.119 Y50.413 E26.23344
G1 X33.541 Y50.238 E26.25471
G1 X34.411 Y49.936 E26.29759
G1 X35.303 Y49.71 E26.34044
G1 X35.877 Y49.607 E26.36759
G1 X36.335 Y49.538 E26.38916
G1 X36.79 Y49.479 E26.41052
G1 X37.667 Y49.415 E26.45147
G1 X37.915 Y49.407 E26.46302
G1 X38.257 Y49.401 E26.47895
G1 X103.443 Y49.401 E29.51428
G1 X104.149 Y49.411 E29.54716
G1 X104.451 Y49.42 E29.56123
G1 X105.685 Y49.473 E29.61874
G1 X106.323 Y49.508 E29.6485
G1 X108.843 Y49.577 E29.76588
G1 X111.337 Y49.575 E29.88201
G1 X114.921 Y49.451 E30.049
G1 X115.138 Y49.44 E30.05912
G1 X115.476 Y49.428 E30.07486
G1 X116.761 Y49.402 E30.13471
G1 X116.975 Y49.4 E30.14468
G1 X181.458 Y49.402 E33.14728
G1 X182.161 Y49.412 E33.18001
G1 X182.737 Y49.436 E33.20686
G1 X182.868 Y49.445 E33.21297
G1 X183.329 Y49.487 E33.23453
G1 X183.533 Y49.51 E33.24409
G1 X184.442 Y49.653 E33.28693
G1 X185.082 Y49.802 E33.31753
G1 X185.632 Y49.949 E33.34404
G1 X186.51 Y50.226 E33.38691
G1 X187.361 Y50.577 E33.42978
G1 X188.179 Y51.001 E33.47268
G1 X188.695 Y51.317 E33.50085
G1 X189.079 Y51.568 E33.52221
G1 X189.827 Y52.105 E33.56509
G1 X190.525 Y52.705 E33.60795
G1 X191.28 Y53.488 E33.6586
G1 X191.406 Y53.633 E33.66754
G1 X191.649 Y53.924 E33.6852
G1 X191.868 Y54.195 E33.70142
G1 X192.415 Y54.935 E33.74427
G1 X192.915 Y55.754 E33.78895
G1 X193.099 Y56.089 E33.80675
G1 X193.507 Y56.914 E33.8496
G1 X193.854 Y57.81 E33.89435
G1 X193.991 Y58.217 E33.91434
G1 X194.247 Y59.102 E33.95724
G1 X194.478 Y60.411 E34.01914
G1 X194.508 Y60.677 E34.0316
G1 X194.573 Y61.642 E34.07664
G1 X194.598 Y62.829 E34.13192
G1 X194.6 Y63.052 E34.1423
G1 X194.598 Y157.451 E38.53792
G1 X194.588 Y158.149 E38.57042
G1 X194.565 Y158.707 E38.59643
G1 X194.555 Y158.856 E38.60338
G1 X194.512 Y159.34 E38.62601
G1 X194.484 Y159.587 E38.63758
G1 X194.34 Y160.496 E38.68044
G1 X194.12 Y161.387 E38.72317
G1 X194.057 Y161.601 E38.73356
G1 X193.876 Y162.156 E38.76074
G1 X193.806 Y162.353 E38.77048
G1 X193.27 Y163.603 E38.83381
G1 X193.08 Y163.965 E38.85284
G1 X192.972 Y164.162 E38.86331
G1 X192.495 Y164.949 E38.90616
G1 X191.912 Y165.74 E38.95191
G1 X191.63 Y166.088 E38.97277
G1 X191.02 Y166.777 E39.01562
G1 X190.363 Y167.402 E39.05784
G1 X190.222 Y167.525 E39.06656
G1 X189.86 Y167.827 E39.08851
G1 X189.545 Y168.078 E39.10726
G1 X188.8 Y168.62 E39.15016
G1 X188.012 Y169.095 E39.19301
G1 X187.185 Y169.5 E39.23588
G1 X186.091 Y169.908 E39.29025
G1 X185.786 Y170.003 E39.30513
G1 X185.458 Y170.1 E39.32105
G1 X185.212 Y170.168 E39.33294
G1 X183.863 Y170.448 E39.39709
G1 X183.742 Y170.465 E39.40278
G1 X183.122 Y170.533 E39.43182
G1 X182.85 Y170.555 E39.44453
G1 X182.257 Y170.587 E39.47218
G1 X181.853 Y170.597 E39.491
G1 X181.591 Y170.6 E39.5032
G1 X116.558 Y170.599 E42.53141
G1 X115.853 Y170.589 E42.56424
G1 X115.558 Y170.581 E42.57798
G1 X114.293 Y170.527 E42.63694
G1 X113.637 Y170.49 E42.66754
G1 X111.133 Y170.422 E42.78418
G1 X108.587 Y170.425 E42.90273
G1 X106.053 Y170.499 E43.02077
G1 X104.367 Y170.584 E43.09938
G1 X104.1 Y170.593 E43.11182
G1 X103.743 Y170.599 E43.12844
G1 X38.555 Y170.599 E46.16387
G1 X37.858 Y170.589 E46.19633
G1 X37.033 Y170.545 E46.2348
G1 X36.871 Y170.53 E46.24238
G1 X36.305 Y170.462 E46.26892
G1 X35.972 Y170.413 E46.28459
G1 X35.068 Y170.24 E46.32745
G1 X34.182 Y169.988 E46.37034
G1 X33.647 Y169.795 E46.39683
G1 X33.226 Y169.63 E46.41788
G1 X32.816 Y169.46 E46.43855
G1 X31.988 Y169.058 E46.48141
G1 X31.198 Y168.585 E46.52428
G1 X30.687 Y168.227 E46.55334
G1 X30.269 Y167.915 E46.57762
G1 X29.555 Y167.332 E46.62055
G1 X28.895 Y166.69 E46.66342
G1 X28.303 Y166.005 E46.70558
G1 X28.039 Y165.672 E46.72536
G1 X27.782 Y165.335 E46.7451
G1 X27.728 Y165.261 E46.74936
G1 X27.219 Y164.495 E46.79219
G1 X26.777 Y163.687 E46.83508
G1 X26.579 Y163.26 E46.85699
G1 X26.408 Y162.869 E46.87686
G1 X26.238 Y162.459 E46.89753
G1 X25.936 Y161.589 E46.94041
G1 X25.71 Y160.697 E46.98326
G1 X25.607 Y160.123 E47.01042
G1 X25.538 Y159.665 E47.03198
G1 X25.479 Y159.21 E47.05335
G1 X25.414 Y158.312 E47.09527
G1 X25.406 Y158.048 E47.10757
G1 X25.401 Y157.727 E47.12252
G1 X25.401 Y62.555 E51.55412
G1 X25.411 Y61.857 E51.58663
G1 X25.456 Y61.026 E51.62538
G1 X25.471 Y60.865 E51.63291
G1 X25.535 Y60.327 E51.65814
G1 X25.583 Y59.996 E51.67371
G1 X25.754 Y59.091 E51.7166
G1 X26.004 Y58.205 E51.75947
G1 X26.207 Y57.64 E51.78742
G1 X26.374 Y57.215 E51.80868
G1 X26.533 Y56.833 E51.82795
G1 X26.933 Y56.004 E51.87081
G1 X27.404 Y55.213 E51.91368
G1 X27.773 Y54.687 E51.9436
G1 X28.085 Y54.269 E51.96789
G1 X28.668 Y53.555 E52.01081
G1 X29.31 Y52.895 E52.05368
G1 X29.981 Y52.314 E52.09501
G1 X30.299 Y52.061 E52.11393
G1 X30.663 Y51.783 E52.13526
G1 X30.751 Y51.719 E52.14033
G1 X31.519 Y51.211 E52.1832
G0 F6000 X31.74 Y51.545
G1 F1200 X32.888 Y50.952 E52.24337
G1 X33.28 Y50.78 E52.2633
G1 X33.689 Y50.61 E52.28393
G1 X34.542 Y50.314 E52.32597
G1 X35.418 Y50.095 E52.36801
G1 X35.936 Y50.003 E52.39251
G1 X36.394 Y49.934 E52.41408
G1 X36.836 Y49.877 E52.43483
G1 X37.68 Y49.814 E52.47424
G1 X37.928 Y49.806 E52.48579
G1 X38.257 Y49.801 E52.50112
G1 X103.437 Y49.801 E55.53617
G1 X104.143 Y49.811 E55.56905
G1 X104.434 Y49.819 E55.5826
G1 X105.663 Y49.873 E55.63989
G1 X106.29 Y49.908 E55.66913
G1 X108.833 Y49.977 E55.78758
G1 X111.351 Y49.975 E55.90483
G1 X114.955 Y49.851 E56.07275
G1 X115.159 Y49.84 E56.08226
G1 X115.484 Y49.828 E56.09741
G1 X116.769 Y49.802 E56.15725
G1 X116.975 Y49.8 E56.16684
G1 X181.452 Y49.802 E59.16916
G1 X182.155 Y49.812 E59.2019
G1 X182.709 Y49.835 E59.22772
G1 X182.84 Y49.844 E59.23384
G1 X183.284 Y49.884 E59.25459
G1 X183.488 Y49.907 E59.26415
G1 X184.38 Y50.048 E59.3062
G1 X184.979 Y50.189 E59.33486
G1 X185.529 Y50.336 E59.36137
G1 X186.39 Y50.607 E59.4034
G1 X187.224 Y50.954 E59.44546
G1 X188.024 Y51.373 E59.48751
G1 X188.476 Y51.652 E59.51224
G1 X188.86 Y51.903 E59.53361
G1 X189.593 Y52.43 E59.57564
G1 X190.277 Y53.02 E59.61771
G1 X190.978 Y53.751 E59.66487
G1 X191.104 Y53.896 E59.67381
G1 X191.338 Y54.175 E59.69077
G1 X191.557 Y54.446 E59.70699
G1 X192.093 Y55.173 E59.74905
G1 X192.564 Y55.947 E59.79124
G1 X192.748 Y56.282 E59.80903
G1 X193.148 Y57.092 E59.8511
G1 X193.475 Y57.938 E59.89333
G1 X193.612 Y58.345 E59.91333
G1 X193.862 Y59.213 E59.95539
G1 X194.081 Y60.456 E60.01416
G1 X194.111 Y60.722 E60.02663
G1 X194.173 Y61.65 E60.06993
G1 X194.198 Y62.837 E60.12522
G1 X194.2 Y63.052 E60.13523
G1 X194.198 Y157.445 E64.53056
G1 X194.188 Y158.143 E64.56307
G1 X194.166 Y158.68 E64.58809
G1 X194.156 Y158.829 E64.59505
G1 X194.114 Y159.295 E64.61684
G1 X194.086 Y159.542 E64.62841
G1 X193.945 Y160.434 E64.67046
G1 X193.736 Y161.274 E64.71077
G1 X193.673 Y161.488 E64.72116
G1 X193.499 Y162.022 E64.74731
G1 X193.429 Y162.219 E64.75704
G1 X192.913 Y163.421 E64.81795
G1 X192.729 Y163.772 E64.83641
G1 X192.621 Y163.969 E64.84687
G1 X192.152 Y164.741 E64.88893
G1 X191.602 Y165.488 E64.93212
G1 X191.32 Y165.836 E64.95298
G1 X190.721 Y166.512 E64.99504
G1 X190.1 Y167.1 E65.03486
G1 X189.959 Y167.223 E65.04357
G1 X189.61 Y167.514 E65.06473
G1 X189.295 Y167.765 E65.08348
G1 X188.565 Y168.296 E65.12552
G1 X187.79 Y168.76 E65.16758
G1 X186.978 Y169.154 E65.2096
G1 X185.972 Y169.527 E65.25956
G1 X185.667 Y169.622 E65.27444
G1 X185.352 Y169.714 E65.28972
G1 X185.106 Y169.782 E65.3016
G1 X183.807 Y170.052 E65.36338
G1 X183.686 Y170.069 E65.36907
G1 X183.089 Y170.135 E65.39704
G1 X182.817 Y170.157 E65.40975
G1 X182.247 Y170.187 E65.43633
G1 X181.843 Y170.197 E65.45514
G1 X181.591 Y170.2 E65.46688
G1 X116.563 Y170.199 E68.49486
G1 X115.858 Y170.189 E68.52769
G1 X115.575 Y170.181 E68.54087
G1 X114.315 Y170.127 E68.59959
G1 X113.669 Y170.091 E68.62972
G1 X111.143 Y170.022 E68.74739
G1 X108.609 Y170.025 E68.86538
G1 X106.02 Y170.101 E68.98599
G1 X104.531 Y170.177 E69.05541
G1 X104.087 Y170.193 E69.0761
G1 X103.743 Y170.199 E69.09212
G1 X38.561 Y170.199 E72.12727
G1 X37.864 Y170.189 E72.15973
G1 X37.07 Y170.147 E72.19675
G1 X36.908 Y170.132 E72.20432
G1 X36.363 Y170.066 E72.22989
G1 X36.03 Y170.017 E72.24556
G1 X35.143 Y169.846 E72.28762
G1 X34.275 Y169.598 E72.32966
G1 X33.793 Y169.423 E72.35354
G1 X33.372 Y169.258 E72.37459
G1 X32.975 Y169.093 E72.39461
G1 X32.163 Y168.698 E72.43666
G1 X31.389 Y168.232 E72.47873
G1 X30.926 Y167.906 E72.50509
G1 X30.508 Y167.594 E72.52938
G1 X29.809 Y167.022 E72.57144
G1 X29.163 Y166.391 E72.61349
G1 X28.616 Y165.757 E72.65248
G1 X28.352 Y165.424 E72.67227
G1 X28.106 Y165.1 E72.69121
G1 X28.052 Y165.026 E72.69547
G1 X27.552 Y164.273 E72.73756
G1 X26.946 Y163.1 E72.79904
G1 X26.775 Y162.709 E72.81891
G1 X26.61 Y162.311 E72.83897
G1 X26.314 Y161.458 E72.88102
G1 X26.095 Y160.582 E72.92306
G1 X26.003 Y160.064 E72.94756
G1 X25.934 Y159.606 E72.96913
G1 X25.877 Y159.164 E72.98988
G1 X25.814 Y158.3 E73.03022
G1 X25.806 Y158.036 E73.04252
G1 X25.801 Y157.727 E73.05691
G1 X25.801 Y62.561 E77.48823
G1 X25.811 Y61.863 E77.52074
G1 X25.854 Y61.063 E77.55804
G1 X25.869 Y60.902 E77.56557
G1 X25.931 Y60.384 E77.58987
G1 X25.979 Y60.053 E77.60544
G1 X26.148 Y59.166 E77.64749
G1 X26.394 Y58.297 E77.68954
G1 X26.58 Y57.787 E77.71482
G1 X26.747 Y57.362 E77.73608
G1 X26.9 Y56.992 E77.75472
G1 X27.294 Y56.179 E77.79679
G1 X27.758 Y55.404 E77.83885
G1 X28.094 Y54.926 E77.86606
G1 X28.406 Y54.508 E77.89035
G1 X28.978 Y53.809 E77.9324
G1 X29.609 Y53.163 E77.97445
G1 X30.23 Y52.627 E78.01265
G1 X30.548 Y52.374 E78.03157
G1 X30.899 Y52.107 E78.05211
G1 X30.987 Y52.043 E78.05717
G1 X31.74 Y51.545 E78.09921
G1 F1500 E71.59921
G0 F6000 X115.821 Y59.35
G0 X116.353 Y59.675
G0 X119.09 Y63.801
G0 X119.554 Y63.8
G1 F1500 E78.09921
G1 F1200 X180.2 Y63.8 E80.92314
G1 X180.199 Y156.2 E85.22568
G1 X119.555 Y156.2 E88.04951
G1 X119.554 Y63.8 E92.35204
G0 F6000 X119.154 Y63.4
G1 F1200 X180.6 Y63.4 E95.21323
G1 X180.599 Y156.6 E99.55301
G1 X119.155 Y156.6 E102.4141
G1 X119.154 Y63.4 E106.75388
G0 F6000 X118.754 Y63
